X: 15407
T: Gleanntán Frolics, The
R: slide
M: 12/8
K: Dmajor
|:d2B AFA d2B A2B|d2B AFE F2B B2c|
d2B AFA d2B A2B|d2B AFE F2D D2 c:|
|:d3 d2e f3 f2e|d3 d2e f2b afe|
d3 d2e f2b afe|1 def afe d2B B2A:|2 d2B AFE F2D D2||

